X:1814
T:All night, all day
C:anon.
O:USA
R:Negro spiritual
Z:Transcribed by Frank Nordberg - http://www.musicaviva.com
F:http://abc.musicaviva.com/tunes/usa/all-night-all-day/all-night-all-day-1.abc
M:C
L:1/8
Q:1/4=96
K:G
"G"D4 G4|"G"B4 G4|"C"E2G2 GE GE|"C"GG3 "D"(ED2)z|
w:All night, all day. An-gels watch-ing o-ver me, my Lord._
"G"D4 G4|"G"B4 G4|"Bm"d2B2 "C"BG "D"AF|"G"G6 z2||
w:All night, all day. An-gels watch-ing o-ver me.
"G"D2E2 G2A2|"G"(BA)B2 G3 z|"C"E2G2 GE GE|"C"GG3 "D"(ED2)z|
w:Day is dy-ing in_ the west. An-gels watch-ing o-ver me, my Lord._
"G"D2E2 G2A2|"G"(BA)B2 G3 z|"Bm"d2B2 "C"BG "D"AF|"G"G6 z2|]
w:Sleep, my child, and take_ your rest. An-gels watch-ing o-ver me.
W:
W:  All night, all day.
W:    Angels watching over me, my Lord.
W:  All night, all day.
W:    Angels watching over me.
W:
W:Day is dying in the west.
W:  Angels watching over me, my Lord.
W:Sleep, my child, and take your rest.
W:  Angels watching over me.
W:
W:  All night, all day...
W:
W:Now I lay me down to sleep.
W:  Angels watching over me, my Lord.
W:Pray the Lord my soul to keep
W:  Angels watching over me.
W:
W:  All night, all day...
W:
W:If I die before I wake.
W:  Angels watching over me, my Lord.
W:Pray the Lord my soul to take
W:  Angels watching over me.
W:
W:  All night, all day...
W:
W:
W:  From Musica Viva - http://www.musicaviva.com
W:  the Internet center for free sheet music downloads.

